assets/imgs/03.svg

<?xml version="1.0" encoding="UTF-8" standalone="no"?>
<svg
   width="70"
   height="25"
   viewBox="0 0 70 60"
   fill="none"
   version="1.1"
   id="svg195"
   sodipodi:docname="03.svg"
   inkscape:version="1.2.2 (b0a8486541, 2022-12-01)"
   xmlns:inkscape="http://www.inkscape.org/namespaces/inkscape"
   xmlns:sodipodi="http://sodipodi.sourceforge.net/DTD/sodipodi-0.dtd"
   xmlns="http://www.w3.org/2000/svg"
   xmlns:svg="http://www.w3.org/2000/svg">
  <defs
     id="defs199" />
  <sodipodi:namedview
     id="namedview197"
     pagecolor="#ffffff"
     bordercolor="#666666"
     borderopacity="1.0"
     inkscape:showpageshadow="2"
     inkscape:pageopacity="0.0"
     inkscape:pagecheckerboard="0"
     inkscape:deskcolor="#d1d1d1"
     showgrid="false"
     inkscape:zoom="6.6779661"
     inkscape:cx="-2.5456853"
     inkscape:cy="37.96066"
     inkscape:window-width="2520"
     inkscape:window-height="1481"
     inkscape:window-x="2869"
     inkscape:window-y="24"
     inkscape:window-maximized="1"
     inkscape:current-layer="svg195" />
  <mask
     id="path-1-outside-1_285_457"
     maskUnits="userSpaceOnUse"
     x="-1"
     y="33"
     width="69"
     height="44"
     fill="#000000">
    <rect
       fill="#ffffff"
       x="-1"
       y="33"
       width="69"
       height="44"
       id="rect188" />
    <path
       d="m 24.9838,55.016 c 0,-9.152 -2.432,-15.68 -6.08,-15.68 -3.648,0 -6.08,6.528 -6.08,15.68 0,9.344 2.432,15.808 6.08,15.808 3.648,0 6.08,-6.464 6.08,-15.808 z m 9.92,0 c 0,11.52 -5.696,18.368 -16,18.368 -10.30405,0 -16.00005,-6.848 -16.00005,-18.368 0,-11.328 5.696,-18.24 16.00005,-18.24 10.304,0 16,6.912 16,18.24 z m 6.405,-8.576 v -9.28 h 21.44 v 5.888 l -11.584,10.944 c 8.064,-0.128 13.568,2.752 13.568,9.408 0,7.616 -7.168,9.984 -15.616,9.984 h -0.128 c -3.008,0 -7.232,-1.024 -9.92,-2.432 l 2.304,-5.632 c 3.136,4.928 5.44,5.504 7.232,5.504 h 0.128 c 3.84,0 6.08,-2.624 6.08,-6.592 0,-5.568 -2.944,-8 -8.256,-7.68 l -0.192,-2.304 10.88,-10.368 h -10.304 z"
       id="path190" />
  </mask>
  <path
     d="m 27.9838,55.016 c 0,-4.7919 -0.6304,-9.1096 -1.8708,-12.3457 -1.1299,-2.9481 -3.3448,-6.3343 -7.2092,-6.3343 v 6 c 0.0019,0 0.002,1e-4 9e-4,0 -4e-4,-10e-5 -9e-4,-2e-4 -0.0014,-2e-4 -2e-4,-10e-5 -4e-4,-10e-5 -5e-4,-10e-5 -2e-4,-1e-4 -3e-4,-1e-4 -3e-4,-1e-4 0,0 10e-5,0 3e-4,1e-4 2e-4,0 6e-4,10e-5 0.001,3e-4 9e-4,2e-4 0.0024,7e-4 0.0045,0.0014 0.0041,0.0015 0.0116,0.0043 0.0225,0.0094 0.0427,0.0202 0.1542,0.0838 0.3209,0.2536 0.3541,0.3608 0.8135,1.0556 1.2588,2.2173 0.8876,2.3159 1.4733,5.8382 1.4733,10.1983 z m -9.08,-18.68 c -3.8645,0 -6.0794,3.3862 -7.2093,6.3343 -1.2404,3.2361 -1.87075,7.5538 -1.87075,12.3457 h 6.00005 c 0,-4.3601 0.5856,-7.8824 1.4732,-10.1983 0.4453,-1.1617 0.9047,-1.8565 1.2588,-2.2173 0.1667,-0.1698 0.2782,-0.2334 0.3209,-0.2536 0.0109,-0.0051 0.0184,-0.0079 0.0225,-0.0094 0.0022,-7e-4 0.0036,-0.0012 0.0045,-0.0014 5e-4,-2e-4 8e-4,-3e-4 10e-4,-3e-4 2e-4,-1e-4 3e-4,-1e-4 3e-4,-1e-4 0,0 -10e-5,0 -2e-4,1e-4 -2e-4,0 -4e-4,0 -6e-4,10e-5 -5e-4,0 -0.001,1e-4 -0.0014,2e-4 -0.0011,1e-4 -10e-4,0 0.001,0 z m -9.08005,18.68 c 0,4.8814 0.62885,9.2322 1.86965,12.479 1.1355,2.971 3.3529,6.329 7.2104,6.329 v -6 c -0.0016,0 -0.0027,0 -0.0033,-1e-4 -3e-4,0 -5e-4,0 -6e-4,0 -10e-5,0 -2e-4,0 -2e-4,0 0,0 0,0 10e-5,0 0,0 10e-5,0 10e-5,0 10e-5,0 0,0 -3e-4,-10e-5 -5e-4,-1e-4 -0.0027,-6e-4 -0.0072,-0.0022 -0.0045,-0.0015 -0.0121,-0.0044 -0.023,-0.0095 -0.0426,-0.02 -0.1529,-0.0824 -0.3178,-0.2497 C 18.201,67.2065 17.7428,66.5168 17.2981,65.353 16.4109,63.0318 15.8238,59.4786 15.8238,55.016 Z m 9.08005,18.808 c 3.8574,0 6.0748,-3.358 7.2103,-6.329 1.2408,-3.2468 1.8697,-7.5976 1.8697,-12.479 h -6 c 0,4.4626 -0.5872,8.0158 -1.4744,10.337 -0.4447,1.1638 -0.9029,1.8535 -1.2535,2.2094 -0.1649,0.1673 -0.2752,0.2297 -0.3178,0.2497 -0.0109,0.0051 -0.0185,0.008 -0.023,0.0095 -0.0044,0.0016 -0.0067,0.0021 -0.0072,0.0022 -3e-4,10e-5 -4e-4,10e-5 -3e-4,10e-5 0,0 10e-5,0 10e-5,0 1e-4,0 1e-4,0 1e-4,0 0,0 -1e-4,0 -2e-4,0 -10e-5,0 -3e-4,0 -6e-4,0 -6e-4,1e-4 -0.0017,1e-4 -0.0032,1e-4 z m 13,-18.808 c 0,5.3044 -1.3132,9.1102 -3.4101,11.5474 -2.0398,2.3706 -5.1415,3.8206 -9.5899,3.8206 v 6 c 5.8555,0 10.7538,-1.974 14.1381,-5.9074 3.327,-3.8668 4.8619,-9.245 4.8619,-15.4606 z m -13,15.368 c -4.4485,0 -7.5502,-1.45 -9.58995,-3.8206 C 7.2169,64.1262 5.90375,60.3204 5.90375,55.016 h -5.9999998 c 0,6.2156 1.5348498,11.5938 4.8618998,15.4606 C 8.14994,74.41 13.0482,76.384 18.9038,76.384 Z M 5.90375,55.016 c 0,-5.1973 1.30777,-8.9741 3.40764,-11.4085 2.04471,-2.3704 5.15181,-3.8315 9.59241,-3.8315 v -6 c -5.8635,0 -10.75639,1.9949 -14.13569,5.9125 -3.32413,3.8536 -4.8643598,9.1968 -4.8643598,15.3275 z M 18.9038,39.776 c 4.4405,0 7.5476,1.4611 9.5923,3.8315 2.0999,2.4344 3.4077,6.2112 3.4077,11.4085 h 6 c 0,-6.1307 -1.5403,-11.4739 -4.8644,-15.3275 C 29.6601,35.7709 24.7672,33.776 18.9038,33.776 Z m 22.405,6.664 h -3 v 4.659 l 4.2414,-1.9279 z m 0,-9.28 v -3 h -3 v 3 z m 21.4399,0 h 3 v -3 h -3 z m 0,5.888 2.0603,2.1807 0.9397,-0.8878 V 43.048 Z m -11.584,10.944 -2.0602,-2.1807 -5.613,5.3029 7.7209,-0.1226 z m -12.096,16.96 -2.7766,-1.1359 -1.0336,2.5267 2.4182,1.2667 z m 2.304,-5.632 2.531,-1.6106 -3.1125,-4.8911 -2.1951,5.3658 z m 5.1841,-8.768 -2.9897,0.2491 0.2435,2.9218 2.9265,-0.1763 z m -0.1921,-2.304 -2.0696,-2.1718 -1.0392,0.9903 0.1192,1.4306 z M 57.2448,43.88 59.3144,46.0518 64.7416,40.88 h -7.4968 z m -10.304,0 v -3 h -0.6499 l -0.5916,0.2689 z m -2.632,2.56 v -9.28 h -6 v 9.28 z m -3,-6.28 h 21.4399 v -6 H 41.3088 Z m 18.4399,-3 v 5.888 h 6 V 37.16 Z m 0.9398,3.7073 -11.584,10.944 4.1205,4.3614 11.584,-10.944 z m -9.4761,16.1243 c 3.7439,-0.0594 6.4553,0.5998 8.1355,1.6823 1.4913,0.9608 2.3848,2.3748 2.3848,4.7261 h 6 c 0,-4.3047 -1.8584,-7.6587 -5.1351,-9.7699 -3.0878,-1.9895 -7.1604,-2.7063 -11.4805,-2.6377 z M 61.7327,63.4 c 0,1.4148 -0.3265,2.428 -0.7996,3.1889 -0.4794,0.7709 -1.2133,1.4488 -2.2702,2.0217 -2.198,1.1917 -5.5083,1.7734 -9.5461,1.7734 v 6 c 4.4101,0 8.9078,-0.6023 12.4058,-2.4986 1.7911,-0.9711 3.3772,-2.3132 4.5058,-4.1283 1.1349,-1.8251 1.7043,-3.9639 1.7043,-6.3571 z m -12.6159,6.984 h -0.128 v 6 h 0.128 z m -0.128,0 c -2.5298,0 -6.2754,-0.9095 -8.528,-2.0895 l -2.7841,5.315 c 3.1234,1.636 7.8258,2.7745 11.3121,2.7745 z m -7.1434,1.7039 2.304,-5.632 -5.5533,-2.2718 -2.304,5.632 z m -3.0036,-5.1573 c 1.6999,2.6714 3.343,4.4382 5.0381,5.519 1.7914,1.1421 3.4149,1.3744 4.7249,1.3744 v -6 c -0.4821,0 -0.9066,-0.0557 -1.4992,-0.4336 -0.6889,-0.4392 -1.7658,-1.4244 -3.2019,-3.681 z m 9.763,6.8934 h 0.1279 v -6 h -0.1279 z m 0.1279,0 c 2.6399,0 5.017,-0.9258 6.7069,-2.7977 1.6547,-1.8329 2.3732,-4.263 2.3732,-6.7943 h -6 c 0,1.4367 -0.4016,2.3026 -0.8269,2.7737 -0.3901,0.4321 -1.053,0.8183 -2.2532,0.8183 z m 9.0801,-9.592 c 0,-3.2749 -0.8716,-6.2396 -3.1256,-8.2747 -2.228,-2.0116 -5.2254,-2.5857 -8.3108,-2.3999 l 0.3607,5.9892 c 2.2266,-0.1342 3.3572,0.3477 3.9292,0.8641 0.546,0.4929 1.1465,1.5282 1.1465,3.8213 z m -8.2664,-7.9291 -0.192,-2.304 -5.9793,0.4982 0.192,2.304 z m -1.112,0.1169 10.88,-10.368 -4.1393,-4.3436 -10.88,10.368 z M 57.2448,40.88 h -10.304 v 6 h 10.304 z m -11.5455,0.2689 -5.632,2.56 2.4829,5.4622 5.632,-2.56 z"
     fill="#ffffff"
     mask="url(#path-1-outside-1_285_457)"
     id="path193"
     transform="translate(1.1979695,-23.959391)" />
</svg>

<svg width="67" height="30" viewBox="0 0 67 118" fill="none" xmlns="http://www.w3.org/2000/svg">
<mask id="path-1-outside-1_285_457" maskUnits="userSpaceOnUse" x="-1" y="33" width="69" height="44" fill="black">
<rect fill="white" x="-1" y="33" width="69" height="44"/>
<path d="M24.9838 55.016C24.9838 45.864 22.5518 39.336 18.9038 39.336C15.2558 39.336 12.8238 45.864 12.8238 55.016C12.8238 64.36 15.2558 70.824 18.9038 70.824C22.5518 70.824 24.9838 64.36 24.9838 55.016ZM34.9038 55.016C34.9038 66.536 29.2078 73.384 18.9038 73.384C8.59975 73.384 2.90375 66.536 2.90375 55.016C2.90375 43.688 8.59975 36.776 18.9038 36.776C29.2078 36.776 34.9038 43.688 34.9038 55.016ZM41.3088 46.44V37.16H62.7488V43.048L51.1648 53.992C59.2288 53.864 64.7328 56.744 64.7328 63.4C64.7328 71.016 57.5648 73.384 49.1168 73.384H48.9888C45.9808 73.384 41.7568 72.36 39.0688 70.952L41.3728 65.32C44.5088 70.248 46.8128 70.824 48.6048 70.824H48.7328C52.5728 70.824 54.8128 68.2 54.8128 64.232C54.8128 58.664 51.8688 56.232 46.5568 56.552L46.3648 54.248L57.2448 43.88H46.9408L41.3088 46.44Z"/>
</mask>
<path d="M27.9838 55.016C27.9838 50.2241 27.3534 45.9064 26.113 42.6703C24.9831 39.7222 22.7682 36.336 18.9038 36.336V42.336C18.9057 42.336 18.9058 42.3361 18.9047 42.336C18.9043 42.3359 18.9038 42.3358 18.9033 42.3358C18.9031 42.3357 18.9029 42.3357 18.9028 42.3357C18.9026 42.3356 18.9025 42.3356 18.9025 42.3356C18.9025 42.3356 18.9026 42.3356 18.9028 42.3357C18.903 42.3357 18.9034 42.3358 18.9038 42.336C18.9047 42.3362 18.9062 42.3367 18.9083 42.3374C18.9124 42.3389 18.9199 42.3417 18.9308 42.3468C18.9735 42.367 19.085 42.4306 19.2517 42.6004C19.6058 42.9612 20.0652 43.656 20.5105 44.8177C21.3981 47.1336 21.9838 50.6559 21.9838 55.016H27.9838ZM18.9038 36.336C15.0393 36.336 12.8244 39.7222 11.6945 42.6703C10.4541 45.9064 9.82375 50.2241 9.82375 55.016H15.8238C15.8238 50.6559 16.4094 47.1336 17.297 44.8177C17.7423 43.656 18.2017 42.9612 18.5558 42.6004C18.7225 42.4306 18.834 42.367 18.8767 42.3468C18.8876 42.3417 18.8951 42.3389 18.8992 42.3374C18.9014 42.3367 18.9028 42.3362 18.9037 42.336C18.9042 42.3358 18.9045 42.3357 18.9047 42.3357C18.9049 42.3356 18.905 42.3356 18.905 42.3356C18.905 42.3356 18.9049 42.3356 18.9048 42.3357C18.9046 42.3357 18.9044 42.3357 18.9042 42.3358C18.9037 42.3358 18.9032 42.3359 18.9028 42.336C18.9017 42.3361 18.9018 42.336 18.9038 42.336V36.336ZM9.82375 55.016C9.82375 59.8974 10.4526 64.2482 11.6934 67.495C12.8289 70.466 15.0463 73.824 18.9038 73.824V67.824C18.9022 67.824 18.9011 67.824 18.9005 67.8239C18.9002 67.8239 18.9 67.8239 18.8999 67.8239C18.8998 67.8239 18.8997 67.8239 18.8997 67.8239C18.8997 67.8239 18.8997 67.8239 18.8998 67.8239C18.8998 67.8239 18.8999 67.8239 18.8999 67.8239C18.9 67.8239 18.8999 67.8239 18.8996 67.8238C18.8991 67.8237 18.8969 67.8232 18.8924 67.8216C18.8879 67.8201 18.8803 67.8172 18.8694 67.8121C18.8268 67.7921 18.7165 67.7297 18.5516 67.5624C18.201 67.2065 17.7428 66.5168 17.2981 65.353C16.4109 63.0318 15.8238 59.4786 15.8238 55.016H9.82375ZM18.9038 73.824C22.7612 73.824 24.9786 70.466 26.1141 67.495C27.3549 64.2482 27.9838 59.8974 27.9838 55.016H21.9838C21.9838 59.4786 21.3966 63.0318 20.5094 65.353C20.0647 66.5168 19.6065 67.2065 19.2559 67.5624C19.091 67.7297 18.9807 67.7921 18.9381 67.8121C18.9272 67.8172 18.9196 67.8201 18.9151 67.8216C18.9107 67.8232 18.9084 67.8237 18.9079 67.8238C18.9076 67.8239 18.9075 67.8239 18.9076 67.8239C18.9076 67.8239 18.9077 67.8239 18.9077 67.8239C18.9078 67.8239 18.9078 67.8239 18.9078 67.8239C18.9078 67.8239 18.9077 67.8239 18.9076 67.8239C18.9075 67.8239 18.9073 67.8239 18.907 67.8239C18.9064 67.824 18.9053 67.824 18.9038 67.824V73.824ZM31.9038 55.016C31.9038 60.3204 30.5906 64.1262 28.4937 66.5634C26.4539 68.934 23.3522 70.384 18.9038 70.384V76.384C24.7593 76.384 29.6576 74.41 33.0419 70.4766C36.3689 66.6098 37.9038 61.2316 37.9038 55.016H31.9038ZM18.9038 70.384C14.4553 70.384 11.3536 68.934 9.31385 66.5634C7.2169 64.1262 5.90375 60.3204 5.90375 55.016H-0.0962498C-0.0962498 61.2316 1.4386 66.6098 4.76565 70.4766C8.14994 74.41 13.0482 76.384 18.9038 76.384V70.384ZM5.90375 55.016C5.90375 49.8187 7.21152 46.0419 9.31139 43.6075C11.3561 41.2371 14.4632 39.776 18.9038 39.776V33.776C13.0403 33.776 8.14741 35.7709 4.76811 39.6885C1.44398 43.5421 -0.0962498 48.8853 -0.0962498 55.016H5.90375ZM18.9038 39.776C23.3443 39.776 26.4514 41.2371 28.4961 43.6075C30.596 46.0419 31.9038 49.8187 31.9038 55.016H37.9038C37.9038 48.8853 36.3635 43.5421 33.0394 39.6885C29.6601 35.7709 24.7672 33.776 18.9038 33.776V39.776ZM41.3088 46.44H38.3088V51.099L42.5502 49.1711L41.3088 46.44ZM41.3088 37.16V34.16H38.3088V37.16H41.3088ZM62.7487 37.16H65.7487V34.16H62.7487V37.16ZM62.7487 43.048L64.809 45.2287L65.7487 44.3409V43.048H62.7487ZM51.1647 53.992L49.1045 51.8113L43.4915 57.1142L51.2124 56.9916L51.1647 53.992ZM39.0687 70.952L36.2921 69.8161L35.2585 72.3428L37.6767 73.6095L39.0687 70.952ZM41.3727 65.32L43.9037 63.7094L40.7912 58.8183L38.5961 64.1841L41.3727 65.32ZM46.5568 56.552L43.5671 56.8011L43.8106 59.7229L46.7371 59.5466L46.5568 56.552ZM46.3647 54.248L44.2951 52.0762L43.2559 53.0665L43.3751 54.4971L46.3647 54.248ZM57.2448 43.88L59.3144 46.0518L64.7416 40.88H57.2448V43.88ZM46.9408 43.88V40.88H46.2909L45.6993 41.1489L46.9408 43.88ZM44.3088 46.44V37.16H38.3088V46.44H44.3088ZM41.3088 40.16H62.7487V34.16H41.3088V40.16ZM59.7487 37.16V43.048H65.7487V37.16H59.7487ZM60.6885 40.8673L49.1045 51.8113L53.225 56.1727L64.809 45.2287L60.6885 40.8673ZM51.2124 56.9916C54.9563 56.9322 57.6677 57.5914 59.3479 58.6739C60.8392 59.6347 61.7327 61.0487 61.7327 63.4H67.7327C67.7327 59.0953 65.8743 55.7413 62.5976 53.6301C59.5098 51.6406 55.4372 50.9238 51.1171 50.9924L51.2124 56.9916ZM61.7327 63.4C61.7327 64.8148 61.4062 65.828 60.9331 66.5889C60.4537 67.3598 59.7198 68.0377 58.6629 68.6106C56.4649 69.8023 53.1546 70.384 49.1168 70.384V76.384C53.5269 76.384 58.0246 75.7817 61.5226 73.8854C63.3137 72.9143 64.8998 71.5722 66.0284 69.7571C67.1633 67.932 67.7327 65.7932 67.7327 63.4H61.7327ZM49.1168 70.384H48.9888V76.384H49.1168V70.384ZM48.9888 70.384C46.459 70.384 42.7134 69.4745 40.4608 68.2945L37.6767 73.6095C40.8001 75.2455 45.5025 76.384 48.9888 76.384V70.384ZM41.8454 72.0879L44.1494 66.4559L38.5961 64.1841L36.2921 69.8161L41.8454 72.0879ZM38.8418 66.9306C40.5417 69.602 42.1848 71.3688 43.8799 72.4496C45.6713 73.5917 47.2948 73.824 48.6048 73.824V67.824C48.1227 67.824 47.6982 67.7683 47.1056 67.3904C46.4167 66.9512 45.3398 65.966 43.9037 63.7094L38.8418 66.9306ZM48.6048 73.824H48.7327V67.824H48.6048V73.824ZM48.7327 73.824C51.3726 73.824 53.7497 72.8982 55.4396 71.0263C57.0943 69.1934 57.8128 66.7633 57.8128 64.232H51.8128C51.8128 65.6687 51.4112 66.5346 50.9859 67.0057C50.5958 67.4378 49.9329 67.824 48.7327 67.824V73.824ZM57.8128 64.232C57.8128 60.9571 56.9412 57.9924 54.6872 55.9573C52.4592 53.9457 49.4618 53.3716 46.3764 53.5574L46.7371 59.5466C48.9637 59.4124 50.0943 59.8943 50.6663 60.4107C51.2123 60.9036 51.8128 61.9389 51.8128 64.232H57.8128ZM49.5464 56.3029L49.3544 53.9989L43.3751 54.4971L43.5671 56.8011L49.5464 56.3029ZM48.4344 56.4198L59.3144 46.0518L55.1751 41.7082L44.2951 52.0762L48.4344 56.4198ZM57.2448 40.88H46.9408V46.88H57.2448V40.88ZM45.6993 41.1489L40.0673 43.7089L42.5502 49.1711L48.1822 46.6111L45.6993 41.1489Z" fill="white" mask="url(#path-1-outside-1_285_457)"/>
</svg>
